packages/core/src/svgs/ctc.svg

<svg width="24" height="24" viewBox="0 0 24 24" fill="none" xmlns="http://www.w3.org/2000/svg">
<g clip-path="url(#clip0_31_8825)">
<path d="M0 0H24V24H0V0Z" fill="url(#paint0_linear_31_8825)"/>
<path d="M17.9144 9.44129L16.3758 9.91272C15.9802 9.101 15.3582 8.42108 14.5848 7.95493C13.8115 7.48878 12.9198 7.25632 12.0172 7.28557C8.70868 7.28557 7.28582 10.1099 7.28582 11.9956C7.28582 13.4827 8.3401 16.7141 12.0001 16.7141C14.7387 16.7141 16.1915 14.5156 16.3758 14.1256L18.0001 14.5113C17.8501 15.0984 16.0072 18.4199 12.0172 18.4199C8.4601 18.4199 5.57153 15.5441 5.57153 11.9956C5.57153 8.447 8.4601 5.57129 12.0172 5.57129C15.5787 5.57129 17.563 8.31415 17.9144 9.44129Z" fill="white"/>
<path d="M12.8101 11.1431H19.2858V12.8574H12.8101V11.1431Z" fill="white"/>
<path d="M12.0001 13.2858C12.7102 13.2858 13.2858 12.7102 13.2858 12.0001C13.2858 11.29 12.7102 10.7144 12.0001 10.7144C11.29 10.7144 10.7144 11.29 10.7144 12.0001C10.7144 12.7102 11.29 13.2858 12.0001 13.2858Z" fill="white"/>
</g>
<defs>
<linearGradient id="paint0_linear_31_8825" x1="4.46571" y1="4.16143" x2="29.2071" y2="32.58" gradientUnits="userSpaceOnUse">
<stop stop-color="#1A1E21"/>
<stop offset="1" stop-color="#06060A"/>
</linearGradient>
<clipPath id="clip0_31_8825">
<rect width="24" height="24" fill="white"/>
</clipPath>
</defs>
</svg>

<svg xmlns="http://www.w3.org/2000/svg" width="24" height="24" fill="none" viewBox="0 0 24 24"><g clip-path="url(#a)"><path fill="url(#b)" d="M0 0h24v24H0z"/><path fill="#fff" d="m17.914 9.441-1.538.472a4.68 4.68 0 0 0-4.359-2.627c-3.308 0-4.731 2.824-4.731 4.71 0 1.487 1.054 4.718 4.714 4.718 2.739 0 4.192-2.198 4.376-2.588L18 14.51c-.15.587-1.993 3.909-5.983 3.909-3.557 0-6.445-2.876-6.445-6.424S8.46 5.57 12.017 5.57c3.562 0 5.546 2.743 5.897 3.87"/><path fill="#fff" d="M12.81 11.143h6.476v1.714H12.81z"/><path fill="#fff" d="M12 13.286a1.286 1.286 0 1 0 0-2.572 1.286 1.286 0 0 0 0 2.572"/></g><defs><linearGradient id="b" x1="4.466" x2="29.207" y1="4.161" y2="32.58" gradientUnits="userSpaceOnUse"><stop stop-color="#1A1E21"/><stop offset="1" stop-color="#06060A"/></linearGradient><clipPath id="a"><path fill="#fff" d="M0 0h24v24H0z"/></clipPath></defs></svg>
